X: 5
T: Farmers' Jamboree
Z: ceolachan
S: https://thesession.org/tunes/4653#setting17194
R: jig
M: 6/8
L: 1/8
K: Amaj
|: c/d/ |efe dcB | A2 c E2 A | c^Bc edc | B3- B2 c/d/ |
efe dcB | A2 c E2 e | gfe dcB | A3- A2 :|
|: c/d/ |e2 c a2 g | f2 d b2 a | gBB Bdf | e3- e2 c/d/ |
e2 c a2 g | f2 d b2 a | gfe dcB | A3- A2 :|
